48x48/categories/applications-3D.svg

<?xml version="1.0" encoding="UTF-8" standalone="no"?>
<svg
   xmlns:dc="http://purl.org/dc/elements/1.1/"
   xmlns:cc="http://creativecommons.org/ns#"
   xmlns:rdf="http://www.w3.org/1999/02/22-rdf-syntax-ns#"
   xmlns:svg="http://www.w3.org/2000/svg"
   xmlns="http://www.w3.org/2000/svg"
   xmlns:sodipodi="http://sodipodi.sourceforge.net/DTD/sodipodi-0.dtd"
   xmlns:inkscape="http://www.inkscape.org/namespaces/inkscape"
   width="47.5"
   height="47.5"
   viewBox="0 0 38 38"
   id="svg2"
   version="1.1"
   inkscape:version="0.48.4 r9939"
   sodipodi:docname="applications-3D.svg">
  <metadata
     id="metadata21">
    <rdf:RDF>
      <cc:Work
         rdf:about="">
        <dc:format>image/svg+xml</dc:format>
        <dc:type
           rdf:resource="http://purl.org/dc/dcmitype/StillImage" />
      </cc:Work>
    </rdf:RDF>
  </metadata>
  <sodipodi:namedview
     pagecolor="#ffffff"
     bordercolor="#666666"
     borderopacity="1"
     objecttolerance="10"
     gridtolerance="10"
     guidetolerance="10"
     inkscape:pageopacity="0"
     inkscape:pageshadow="2"
     inkscape:window-width="1440"
     inkscape:window-height="848"
     id="namedview19"
     showgrid="false"
     inkscape:zoom="4.9684211"
     inkscape:cx="-8.2521186"
     inkscape:cy="23.347458"
     inkscape:window-x="0"
     inkscape:window-y="0"
     inkscape:window-maximized="1"
     inkscape:current-layer="svg2" />
  <defs
     id="defs4">
    <linearGradient
       gradientTransform="matrix(.27325 0 0 .27325 -18.15386 26.37974)"
       id="linear0"
       y1="723.888"
       x1="526.146"
       y2="19.913"
       gradientUnits="userSpaceOnUse"
       x2="526.181">
      <stop
         offset="0"
         style="stop-color:#fff;stop-opacity:.502"
         id="stop7" />
      <stop
         offset="1"
         style="stop-color:#fff;stop-opacity:.8"
         id="stop9" />
    </linearGradient>
  </defs>
  <path
     style="fill:none;stroke:url(#linear0);stroke-width:.82"
     d="M 125.631579 31.815789 L 125.605263 224.184211 "
     transform="scale(.14844)"
     id="path17" />
  <path
     sodipodi:type="arc"
     style="fill:#bf8fbf;fill-opacity:1;stroke:none"
     id="path2998"
     sodipodi:cx="-58.871822"
     sodipodi:cy="27.473516"
     sodipodi:rx="20.429026"
     sodipodi:ry="20.429026"
     d="m -38.442797,27.473516 a 20.429026,20.429026 0 1 1 -40.858051,0 20.429026,20.429026 0 1 1 40.858051,0 z"
     transform="matrix(0.93983924,0,0,0.93983924,74.330049,-6.8206888)" />
  <g
     id="g3768"
     style="fill:#ffffff"
     transform="translate(2e-6,0)">
    <path
       id="path3770"
       d="m 4.199219,25.332031 8.667969,1.371094 0,-5.132813 -8.710938,-0.425781 0,-4.203125 8.671875,-0.425781 0,-5.171875 -8.667969,1.398438 -0.00391,-4.210938 14.488281,-3.808594 0,28.546875 -14.445312,-3.761719 z"
       style="fill:#ffffff;fill-rule:evenodd"
       inkscape:connector-curvature="0" />
    <path
       id="path3772"
       d="m 18.648438,4.722656 c 1.683593,0.433594 3.269531,0.84375 4.765624,1.230469 1.40625,0.363281 2.742188,0.707031 4.011719,1.035156 1.410157,0.363281 2.496094,0.925781 3.285157,1.671875 0.761718,0.722656 1.375,1.625 1.84375,2.707032 0.464843,1.0625 0.785156,2.238281 0.988281,3.539062 0.199219,1.292969 0.300781,2.640625 0.300781,4.054688 0,2.21875 -0.148438,3.957031 -0.445312,5.21875 -0.300782,1.285156 -0.722657,2.402343 -1.28125,3.367187 -0.574219,0.984375 -1.199219,1.714844 -1.898438,2.179687 -0.984375,0.65625 -1.921875,1.097657 -2.792969,1.320313 -1.269531,0.320313 -2.609375,0.664063 -4.019531,1.019531 -1.496094,0.382813 -3.082031,0.785156 -4.761719,1.210938 0,-4.753906 0,-9.511719 0,-14.269532 0,-4.757812 0,-9.519531 0,-14.28125 z m 6.21875,7.347656 c 0,2.3125 0,4.617188 0,6.929688 0,2.308594 0,4.617188 0,6.925781 0.449218,-0.0625 0.890624,-0.125 1.324218,-0.183593 1.074219,-0.148438 1.8125,-0.417969 2.238282,-0.8125 0.417968,-0.386719 0.738281,-1.003907 0.96875,-1.847657 0.230468,-0.84375 0.34375,-2.171875 0.34375,-4.003906 0,-2.421875 -0.253907,-4.101563 -0.769532,-5.058594 -0.53125,-0.980469 -1.433594,-1.570312 -2.757812,-1.757812 -0.441406,-0.0625 -0.890625,-0.125 -1.347656,-0.191407 z"
       inkscape:connector-curvature="0"
       style="fill:#ffffff" />
  </g>
</svg>

<svg width="47.5" xmlns="http://www.w3.org/2000/svg" height="47.5" viewBox="0 0 38 38" xmlns:xlink="http://www.w3.org/1999/xlink">
<defs>
<linearGradient gradientTransform="matrix(.27325 0 0 .27325 -18.15386 26.37974)" id="linear0" y1="723.888" x1="526.146" y2="19.913" gradientUnits="userSpaceOnUse" x2="526.181">
<stop offset="0" style="stop-color:#fff;stop-opacity:.502"/>
<stop offset="1" style="stop-color:#fff;stop-opacity:.8"/>
</linearGradient>
</defs>
<g style="fill:#c18eb2">
<path style="fill-rule:evenodd" d="M 4.199219 25.332031 L 12.867188 26.703125 L 12.867188 21.570312 L 4.15625 21.144531 L 4.15625 16.941406 L 12.828125 16.515625 L 12.828125 11.34375 L 4.160156 12.742188 L 4.15625 8.53125 L 18.644531 4.722656 L 18.644531 33.269531 L 4.199219 29.507812 Z "/>
<path d="M 18.648438 4.722656 C 20.332031 5.15625 21.917969 5.566406 23.414062 5.953125 C 24.820312 6.316406 26.15625 6.660156 27.425781 6.988281 C 28.835938 7.351562 29.921875 7.914062 30.710938 8.660156 C 31.472656 9.382812 32.085938 10.285156 32.554688 11.367188 C 33.019531 12.429688 33.339844 13.605469 33.542969 14.90625 C 33.742188 16.199219 33.84375 17.546875 33.84375 18.960938 C 33.84375 21.179688 33.695312 22.917969 33.398438 24.179688 C 33.097656 25.464844 32.675781 26.582031 32.117188 27.546875 C 31.542969 28.53125 30.917969 29.261719 30.21875 29.726562 C 29.234375 30.382812 28.296875 30.824219 27.425781 31.046875 C 26.15625 31.367188 24.816406 31.710938 23.40625 32.066406 C 21.910156 32.449219 20.324219 32.851562 18.644531 33.277344 C 18.644531 28.523438 18.644531 23.765625 18.644531 19.007812 C 18.644531 14.25 18.644531 9.488281 18.644531 4.726562 Z M 24.867188 12.070312 C 24.867188 14.382812 24.867188 16.6875 24.867188 19 C 24.867188 21.308594 24.867188 23.617188 24.867188 25.925781 C 25.316406 25.863281 25.757812 25.800781 26.191406 25.742188 C 27.265625 25.59375 28.003906 25.324219 28.429688 24.929688 C 28.847656 24.542969 29.167969 23.925781 29.398438 23.082031 C 29.628906 22.238281 29.742188 20.910156 29.742188 19.078125 C 29.742188 16.65625 29.488281 14.976562 28.972656 14.019531 C 28.441406 13.039062 27.539062 12.449219 26.214844 12.261719 C 25.773438 12.199219 25.324219 12.136719 24.867188 12.070312 Z "/>
</g>
<path style="fill:none;stroke:url(#linear0);stroke-width:.82" d="M 125.631579 31.815789 L 125.605263 224.184211 " transform="scale(.14844)"/>
</svg>
